icons/4_Outdated/TradingView v1.svg

<svg width="1024" height="1024" fill="none" xmlns="http://www.w3.org/2000/svg"><g clip-path="url(#a)"><path d="M512 1024c282.77 0 512-229.23 512-512S794.77 0 512 0 0 229.23 0 512s229.23 512 512 512Z" fill="#9ABEFF"/><path d="M734 465.5c10.4 15 16.3 32.6 17.1 50.9 36.6 12.9 58.5 50.3 52 88.6-6.5 38.2-39.7 66.2-78.5 66.3H326.1c-28 0-54.9-11-74.8-30.8l169-133.8c6.2 3.3 13.3 5.2 20.8 5.2 6.5 0 13-1.4 18.9-4.2l80.6 70.5c-4.3 13.7-1.8 28.7 6.9 40.1 8.7 11.5 22.4 18 36.8 17.5 14.4-.5 27.6-7.9 35.5-19.9 7.9-12 9.5-27.1 4.2-40.5l110-109.9Zm-25-25L599.1 550.4c-5.2-2-10.7-3.1-16.2-3-6.5 0-13 1.4-18.9 4.2L483.5 481c4.2-13.3 1.9-27.8-6.2-39.1s-21-18.2-34.9-18.5c-13.9-.3-27.2 5.9-35.8 16.8-8.6 10.9-11.6 25.3-8.1 38.7L230.6 611.8c-16.2-33.1-14.1-72.3 5.6-103.4 19.7-31.2 54.1-49.9 91-49.5 8.4-66.7 62.5-118.4 129.5-123.6 67-5.3 128.5 37.3 147.2 101.9 15.1-9 32.3-13.7 49.8-13.7 20.5-.1 39.5 6.2 55.3 17Z" fill="#fff"/></g><defs><clipPath id="a"><path fill="#fff" d="M0 0h1024v1024H0z"/></clipPath></defs></svg>

<svg width="1024" height="1024" viewBox="0 0 1024 1024" fill="none" xmlns="http://www.w3.org/2000/svg">
<g clip-path="url(#clip0_3_695)">
<path d="M512 1024C794.77 1024 1024 794.77 1024 512C1024 229.23 794.77 0 512 0C229.23 0 0 229.23 0 512C0 794.77 229.23 1024 512 1024Z" fill="#9ABEFF"/>
<path d="M734 465.5C744.4 480.5 750.3 498.1 751.1 516.4C787.7 529.3 809.6 566.7 803.1 605C796.6 643.2 763.4 671.2 724.6 671.3H326.1C298.1 671.3 271.2 660.3 251.3 640.5L420.3 506.7C426.5 510 433.6 511.9 441.1 511.9C447.6 511.9 454.1 510.5 460 507.7L540.6 578.2C536.3 591.9 538.8 606.9 547.5 618.3C556.2 629.8 569.9 636.3 584.3 635.8C598.7 635.3 611.9 627.9 619.8 615.9C627.7 603.9 629.3 588.8 624 575.4L734 465.5ZM709 440.5L599.1 550.4C593.9 548.4 588.4 547.3 582.9 547.4C576.4 547.4 569.9 548.8 564 551.6L483.5 481C487.7 467.7 485.4 453.2 477.3 441.9C469.2 430.6 456.3 423.7 442.4 423.4C428.5 423.1 415.2 429.3 406.6 440.2C398 451.1 395 465.5 398.5 478.9L230.6 611.8C214.4 578.7 216.5 539.5 236.2 508.4C255.9 477.2 290.3 458.5 327.2 458.9C335.6 392.2 389.7 340.5 456.7 335.3C523.7 330 585.2 372.6 603.9 437.2C619 428.2 636.2 423.5 653.7 423.5C674.2 423.4 693.2 429.7 709 440.5Z" fill="white"/>
</g>
<defs>
<clipPath id="clip0_3_695">
<rect width="1024" height="1024" fill="white"/>
</clipPath>
</defs>
</svg>
